X: 102
T: No_30_Song_of_a_Man_Who_Rushed_Toward_the_Enemy.krn
%%abc-version 2.0
%%abcx-abcm2ps-target-version 5.9.1 (29 Sep 2008)
%%abc-creator hum2abc beta
%%abcx-conversion-date 2020/08/10 18:54:57
%%gracespace 0 6 6
%%humdrum-veritas 4023937783
%%humdrum-veritas-data 3500594074
%%linebreak <none>
%%barnumbers 0
L: 1/8
M: 2/4
%%staves {1 2}
V: 1 clef=treble
V: 2 clef=bass
K: Ab
[V:1] F/F/ [I:setbarnb 1]| 
[V:2] z | 
[V:1] FE FE ||  
[V:2] G,,G,, G,,G,, ||  
[V:1] [M:3/4]C>CC3F/F/ ||  
[V:2] [M:3/4]G,,G,, G,,G,, G,,G,, ||  
[V:1] [M:2/4]FE FE[K:clef=bass] ||  
[V:2] [M:2/4]z4 ||  
[V:1] [M:3/4]C>CC7/C/ | 
[V:2] [M:3/4]z6 | 
[V:1] C>C C>C C=B,3//C// | 
[V:2] z6 | 
[V:1] C2C>C CB, ||  
[V:2] z6 ||  
[V:1] [M:2/4]B,A, B,/A,/A,/F,/ | 
[V:2] [M:2/4]z4 | 
[V:1] C,>C, C,F,/F,/ | 
[V:2] z4 | 
[V:1] F,E, F,E, ||  
[V:2] z4 ||  
[V:1] [M:3/4]C,>C,C,3z | 
[V:2] [M:3/4]z6 | 


